!!!COM: Robert Schumann
!!!CNT: Deutsch
!!!TXO: Deutsch
!!!OTL: O ihr Herren
!!!LYR: Ru2ckert
!!!OPR: Zwo2lf Gedichte aus F. Ru2ckerts Liebesfru2hling
!!!OPS: Op.37
!!!ONM: No. 3
!!!ENC: Ben Fuhrman
!!!YOR: Schumann Lieder - Max Friedlaender, ed.,
!!!YOR: New York: C. F. Peters, Vol. 2
!!!ODT: 1841/
!!NB: Vocal melody and text only encoded.
!!NB: First instance of melodic material only encoded.
**kern	**silbe
*clefG2	*
*k[f#]	*
*M2/4	*
!!created: 07/12/06 9:40
!!proofed and posted: 07/12/06 9:40
!!edit time: 10 minutes
=	=
4r	.
{8d	{O
8d	ihr
=1	=1
8.g	Her-
16g	-ren,
8a	o
8a	ihr
=2	=2
8.b	wer-
16b	-ten,
8cc	gro-
8ee	-ssen,
=3	=3
(16ee	rei-
16dd	|
16cc)	|
16b	-chen
8a	Her-
8b	-ren
=4	=4
4g}	all!}
{8d	{Braucht
8d	in
=5	=5
8.g	eu-
16g	-ren
8a	scho2-
8a	-nen
=6	=6
8.b	Ga2r-
16b	-ten
8cc	ihr
8ee	dem
=7	=7
(16ee	kei-
16dd	|
16cc)	|
16b	-ne
8a	Nach-
8b	-ti-
=8	=8
4g}	-gall?}
{8b	{Hier
8b	ist
=9	=9
8.dd	ei-
16a	-ne,
8g	-die
8a	ein
=10	=10
8f#	stil-
8d	-les
8e	Pla2tz-
8f#	-chen
=11	=11
(8g	sucht
16a)	|
16a	die
8b	Welt
8cc	ent-
=12	=12
4f#}	-lang.}
{8e	{Ra2umt
8e	mir
=13	=13
8.a	ei-
16a	-nes
8b	ein,
8b	ich
=14	=14
8.cc	will
16cc	es
(8dd	euch
16dd#)	|
16dd#	be-
=15	=15
(16dd#	-zah-
16ee	|
16ddn)	|
16cc	-len
8.b	mit
16a	Ge-
=16	=16
4g}	-sang.}
4r	.
==	==
*-	*-
